X:1
T:Up in the Morning Early
M:6/4
L:1/4
K:Bb
 D| G2 A B2 c| d3/2- =e/2 f F2 F| G3/2- A/2B/2-c/2 d3/2- c/2B/2-A/2|\
 G3 d2 D| G2 A B2 c| d3/2- =e/2 f F2 F| G3/2- A/2B/2-c/2 d3/2- c/2B/2-A/2|\
 G3 d3| B3/2 c/2 B B2 B| c3/2- d/2 c c3| d3/2 e/2 f g3/2- f/2 e| d3 f2 B|\
 B3/2- c/2 B B2 B| c/2 d3/2 f g2f/2-e/2| d3/2- c/2 B A3/2- G/2 ^F|\
 G3 d3|
